X: 20019
T: Jimmy Doyle's
R: polka
M: 2/4
K: Gmajor
Bd de|dB BA/B/|dB AB|dB G>A|
Bd de|dB BA/B/|dG BA|1 AG G>A:|2 AG G2||
|:dg ga/g/|fe e>f|ed Bd|ed BA|
dg ga/g/|fe e/f/g/e/|dG BA|1 AG G2:|2 AG G>A||
"Version 2:"
|:Bd de|dB B/A/B/c/|dB AB|dB G>A|
Bd de|dB B/A/B/c/|dG BA|1 AG G>A:|2 AG GB||
|:de/f/ gg|fe e>f|ed Bd|ed Bd|
de/f/ gg|fe e>e|dG BA|1 AG G2:|2 AG G>A||

